X:1
T:Title
%%score { ( 1 3 ) | ( 2 4 ) }
L:1/8
Q:1/4=100
M:4/4
K:G
V:1 treble nm="Grand Piano"
V:3 treble 
V:2 bass 
V:4 bass 
V:1
 [DB]>[DB] [^C_B]>[CB] [D=B]2 [B,G]2 | [EG]>[EG] [^DA]>[DA] [=DB]4 | %2
w: Adam~Geibel * * * * *||
 [Fd]>[Fc] [FB]>[FA] [DGc]>[DGB] [B,DA]>[B,DG] | [A,DF]2 [^CG]2 [DA]4 | %4
w: ||
 [DB]>[DB] [^C_B]>[CB] [D=B]2 [B,G]2 | [EG]>[EG] [^DA]>[DA] [=DB]4 | %6
w: ||
 [DB]>[DB] [=Fd]>[Fe] [Ed]>[Ec] [EB]>[EA] |[M:7/8] [DB]2 [CA]2 [B,G]3 |[M:1/4] B>c |[M:4/4] d6 z2 | %10
w: ||||
 [GB]2 [FA]2 z2 [FA]>[GB] | c6 z2 | B6 z2 | B>B c>c d2 B>G | %14
w: ||||
[M:9/8] [EA]>[EA][EB]- [EB]/[EB]/ [Ec]2- [Ec][Ge]>[Ge] | %15
w: |
[M:35/32] [Gd]/ [DB]2- [B,-DG-B](3:2:6[B,G]3/4-[B,G]/8[EAc]3/4-[EAc]/8[DGB]3/4-[DGB]/8 z/4 [DGB]3/2(3:2:4[DFB]3/2-[DFB]/4[CFA]3/4-[CFA]/8 | %16
w: |
[M:4/4] [B,DG]6- [B,DG]/4 z/4 z/ z |] %17
w: |
V:2
 [G,,G,]>[G,,G,] [G,,G,]>[G,,G,] [G,,G,]2 [G,,G,]2 | [C,G,]>[C,G,] [C,G,]>[C,G,] [G,,G,]4 | %2
 [D,A,]>[D,A,] [D,D]>[D,D] G,>G, G,,>G,, | A,,2 [A,,E,]2 [D,F,]4 | %4
 [G,,G,]>[G,,G,] [G,,G,]>[G,,G,] [G,,G,]2 [G,,G,]2 | [C,G,]>[C,G,] [C,G,]>[C,G,] [G,,G,]4 | %6
 [G,,G,]>[G,,G,] [B,,G,]>[B,,G,] [C,G,]>[C,G,] [C,G,]>[C,G,] |[M:7/8] [D,G,]2 [D,F,]2 [G,,G,]3 | %8
[M:1/4][K:treble] [G,D]>[G,A,D] | %9
[M:4/4] [G,B,G]>[G,B,] [G,B,]>[K:bass][G,B,] [G,B,]2 [A,CD][G,B,D] | [D,D]2 [D,D]2 z2 [D,D]2 | %11
 [D,A,]>[D,A,] [D,A,]>[D,A,] [D,A,]>[D,D] [D,D]>[D,D] | %12
 [G,DG]>[G,D] [G,D]>[G,D] [G,D]2[K:bass] B,,>D, | %13
 [G,DG]>[G,DG] [A,DF]>[A,DF] [B,DG]2 [G,DG]>[K:bass][G,B,D] | %14
[M:9/8] [C,A,]>[C,A,][B,,^G,]- [B,,G,]/[B,,G,]/ [A,,A,]2- [A,,A,][C,A,]>[^C,_B,] | %15
[M:35/32] .[D,B,]2 z/ E,-(3:2:6E,3/4-E,/8C,3/4-C,/8D,3/4-D,/8 z/4 D,3/2(3:2:4D,3/2-D,/4D,3/4-D,/8 | %16
[M:4/4] G,,6- G,,/4 z/4 z/ z |] %17
V:3
 x8 | x8 | x8 | x8 | x8 | x8 | x8 |[M:7/8] x7 |[M:1/4] x2 |[M:4/4] z z/ G/ G>G GGFG | x8 | %11
 F>F F>F F>[FA] [Fd]>[Fc] | z z/ G/ G>G G2 [DG]>[DFA] | x8 |[M:9/8] x9 | %15
[M:35/32] z/ .G3 z3/2 z/4 z3 z/ |[M:4/4] x8 |] %17
V:4
 x8 | x8 | x8 | x8 | x8 | x8 | x8 |[M:7/8] x7 |[M:1/4][K:treble] x2 |[M:4/4] x7/2[K:bass] x9/2 | %10
 x8 | x8 | x6[K:bass] x2 | x15/2[K:bass] x/ |[M:9/8] x9 |[M:35/32] z/ D,3 z3/2 z/4 z3 z/ | %16
[M:4/4] x8 |] %17

